!!!OTL: 762. Rechter Sache gutes Ende.
!!!COM: K. F. Zelter
!!!ARE: Europa, Mitteleuropa, Deutschland
!!!SCT: B0762
!!!TXL: @@DE
!!!YEM: Copyright 1995, estate of Helmut Schaffrath.
**kern	**text
*ICvox	*
*Ivox	*
*clefG2	*
*M4/4	*
*met(c)	*
*k[f#]	*
*G:	*
!LO:TX:a:t=Feierlich froh.	!
{4d	Wer
=1	=1
4.g	Gott
8a	das
4b	Her-
4a	-ʒe
=2	=2
2g	gie-
4d}	-bet,
{8eL	ſo
8f#J	.
=3	=3
4g	nie
4b	ſich
4a	von
4dd	ihm
=4	=4
2b	trennt,
4r}	.
{4d	und
=5	=5
4.g	ei-
8a	-ne
4b	See-
4a	-le
=6	=6
2g	lie-
4e}	-bet,
{8f#L	die
8gJ	.
=7	=7
8a/L	kei-
8ddJ	.
8aL	-ne
8gJ	.
4f#	Falſchheit
4e	.
=8	=8
2d	kennt:
4r}	.
{4d	der
=9	=9
4.a	mag
8b	ohn'
4cc	Sor-
4a	-gen
=10	=10
2dd	wa-
4b}	-chen,
{4ee	mag
=11	=11
4dd	ſchla-
4g	-fen
4cc	wie
4b	er
=12	=12
2a	will,
4r}	.
{4d	weil
=13	=13
4e	ſei-
4f#	-ne
4g	rech-
4a	-ten
=14	=14
(4.b	Sa-
8cc)	.
4dd}	-chen
{4ee	gehn
=15	=15
4dd	auf
8gL	ein
8aJ	.
4b	gu-
4a	-tes
=16	=16
2g	Ʒiel.
4r}	.
==	==
!!!AGN: Moral - Lied, religioes
!!!GTL: Religioese Lieder
!!!ONB: ESAC (Essen Associative Code) Database: BOEHME
!!!AMT: simple quadruple
!!!AIN: vox
!!!EED: Helmut Schaffrath
!!!EEV: 1.0
!!Mel. v. K. Friedt. Ʒelter: "Jn allen guten Stunden". (1810.)
!!@@COMMENT:"Martin Opitʒ von Boberfeld 1629."
!!@@END:
!!!Text: M. Opitz
!!!URL-scan: https://archive.org/details/BoehmeVtLieder1895/page/n609/mode/2up
!!!ENC: Anna Maria Matuszewska
!!!EEV: 2024/19/07
*-	*-
